X: 31
T: Marianne
I: Marianne	S-M	F	square
C: S-M
M: C|
Z: Transcribed to abc by Mary Lou Knack
R: square
$NormLMargin
$NormRMargin
P: Intro
K: F
"Bb"zded "F"c2A2| "C7"C/CC/DE "F"Fzz2|
$SmallLMargin
$SmallRMargin
P:
|: "F"CAAA AAAA| AGBA "C"G3G| "C7"CGGG GGGG| GFAG "F"F3C|
     "F"CAAA AAAA|"F7"cBdc "Bb"B4| zded "F"c2A2| "C7"zBAG "F"F2z2|
     "F"A2c2 F2AA| "C7"AGB4z2| G2BB E2GG| "F"GFA4z2|
% %vskip 5pt
     "F"AAcc F2AA| "C7"AGB4z2| G2BB E2GG| "F"GFF2 z2zC :|
% %text 9/1/98

#include "LeftHeader.h"
$SmallLMargin
$SmallRMargin
% %scale .9
